packages/core/src/Assets/SvgComponents/settings/img-theme-light.svg

<?xml version="1.0" encoding="UTF-8"?>
<svg width="236px" height="180px" viewBox="0 0 236 180" version="1.1" xmlns="http://www.w3.org/2000/svg" xmlns:xlink="http://www.w3.org/1999/xlink">
    <!-- Generator: Sketch 55.2 (78181) - https://sketchapp.com -->
    <title>Group</title>
    <desc>Created with Sketch.</desc>
    <defs>
        <rect id="path-1" x="3.63797881e-12" y="0" width="236" height="180" rx="4"></rect>
        <linearGradient x1="50%" y1="126.023094%" x2="50%" y2="32.9067953%" id="linearGradient-3">
            <stop stop-color="#FFFFFF" stop-opacity="0" offset="0%"></stop>
            <stop stop-color="#85ACB0" stop-opacity="0.16" offset="100%"></stop>
        </linearGradient>
    </defs>
    <g id="Symbols" stroke="none" stroke-width="1" fill="none" fill-rule="evenodd">
        <g id="images/img-theme-light">
            <g id="Group">
                <mask id="mask-2" fill="white">
                    <use xlink:href="#path-1"></use>
                </mask>
                <use id="bg" fill="#F2F3F4" fill-rule="nonzero" xlink:href="#path-1"></use>
                <path d="M155.5,123 L61,123 L61,180 L60,180 L60,123 L1.8189894e-12,123 L1.8189894e-12,122 L60,122 L60,32 L1.8189894e-12,32 L1.8189894e-12,31 L60,31 L60,0 L61,0 L61,31 L155.5,31 L155.5,0 L156.5,0 L156.5,31 L236,31 L236,32 L156.5,32 L156.5,122 L236,122 L236,123 L156.5,123 L156.5,180 L155.5,180 L155.5,123 Z M155.5,122 L155.5,32 L61,32 L61,122 L155.5,122 Z" id="grid" fill="#E6E9E9" fill-rule="nonzero" mask="url(#mask-2)"></path>
                <polygon id="chart-bg" fill="url(#linearGradient-3)" mask="url(#mask-2)" points="156 96 149.5 102.5 144.5 134.5 141.5 119.5 139.5 44.5 137.5 29.5 121.5 15.5 112.5 30.5 98.5 44.5 87.5 44.5 82.5 59.5 80.5 29.5 77.5 59.5 73.5 59.5 68.5 89.5 66.5 74.5 54.5 59.5 52.5 45.5 29.5 59.5 25.5 74.5 22.5 45.5 13.5 89.5 4.6902586e-13 89.5 4.68958206e-13 180 156 180"></polygon>
                <path d="M149.005994,102.422812 C149.02235,102.318136 149.071532,102.221361 149.146447,102.146447 L155.646447,95.6464466 C155.841709,95.4511845 156.158291,95.4511845 156.353553,95.6464466 C156.548816,95.8417088 156.548816,96.1582912 156.353553,96.3535534 L149.968837,102.73827 L144.994006,134.577188 C144.907793,135.128949 144.119232,135.145669 144.00971,134.598058 L141.000178,119.513329 L139.004386,44.5660819 L137.029237,29.7524668 L121.62096,16.2702245 L112.928746,30.7572479 L112.853553,30.8535534 L98.8535534,44.8535534 C98.7597852,44.9473216 98.6326082,45 98.5,45 L87.8603796,45 L82.9743416,59.6581139 C82.8009407,60.1783168 82.0375826,60.0803871 82.0011074,59.5332595 L80.4003316,35.521622 L77.9975186,59.5497519 C77.9719585,59.8053528 77.7568757,60 77.5,60 L73.9235635,60 L68.993197,89.5821995 C68.8988076,90.1485357 68.0802676,90.1351935 68.004386,89.5660819 L66.0227526,74.7038313 L54.1095656,59.8123475 C54.0537576,59.7425875 54.0176593,59.6591492 54.0050253,59.5707107 L52.1122608,46.3213592 L29.9314061,59.822749 L25.9831175,74.6288313 C25.8400475,75.1653436 25.05979,75.1037628 25.0026541,74.5514496 L22.337583,48.7890955 L13.9898575,89.6001981 C13.9422594,89.8329 13.73752,90 13.5,90 L4.26325641e-13,90 L4.26325641e-13,89 L13.0919202,89 L22.0101425,45.3998019 C22.1247847,44.839329 22.9384796,44.8795096 22.9973459,45.4485504 L25.7175358,71.7437191 L29.0168825,59.3711687 C29.05007,59.2467158 29.1300042,59.1398708 29.2400265,59.0729007 L52.2400265,45.0729007 C52.5466477,44.8862617 52.9442105,45.0739393 52.9949747,45.4292893 L54.9756771,59.2942059 L66.8904344,74.1876525 C66.9472332,74.258651 66.9835973,74.3437933 66.995614,74.4339181 L68.5549485,86.1289275 L73.006803,59.4178005 C73.0469854,59.1767065 73.2555804,59 73.5,59 L77.0475062,59 L80.0024814,29.4502481 C80.0635206,28.8398565 80.9580874,28.8546632 80.9988926,29.4667405 L82.8297505,56.9296096 L87.0256584,44.3418861 C87.0937154,44.137715 87.2847848,44 87.5,44 L98.2928932,44 L112.102922,30.189971 L121.071254,15.2427521 C121.231601,14.9755068 121.594705,14.9184828 121.829252,15.1237117 L137.829252,29.1237117 C137.920474,29.2035305 137.979594,29.3137692 137.995614,29.4339181 L139.999822,44.4866714 L141.99029,119.401942 L144.439534,131.648158 L149.005994,102.422812 Z" id="chart-line" fill="#85ACB0" fill-rule="nonzero" mask="url(#mask-2)"></path>
                <path d="M158.958521,95.5 L163,95.5 L163,96.5 L158.958521,96.5 C158.720482,97.9188567 157.486498,99 156,99 C154.343146,99 153,97.6568542 153,96 C153,94.3431458 154.343146,93 156,93 C157.486498,93 158.720482,94.0811433 158.958521,95.5 Z M195.416667,96.5 L191,96.5 L191,95.5 L195.416667,95.5 L205,84 L236,84 L236,108 L205,108 L195.416667,96.5 Z M183,95.5 L187,95.5 L187,96.5 L183,96.5 L183,95.5 Z M175,95.5 L179,95.5 L179,96.5 L175,96.5 L175,95.5 Z M167,95.5 L171,95.5 L171,96.5 L167,96.5 L167,95.5 Z" id="current-spot" fill="#FF444F" fill-rule="nonzero" mask="url(#mask-2)"></path>
            </g>
        </g>
    </g>
</svg>

<svg width="236" height="180" xmlns="http://www.w3.org/2000/svg" xmlns:xlink="http://www.w3.org/1999/xlink"><defs><linearGradient x1="50%" y1="126.023%" x2="50%" y2="32.907%" id="c"><stop stop-color="#FFF" stop-opacity="0" offset="0%"/><stop stop-color="#85ACB0" stop-opacity=".16" offset="100%"/></linearGradient><rect id="a" x="0" y="0" width="236" height="180" rx="4"/></defs><g fill="none" fill-rule="evenodd"><mask id="b" fill="#fff"><use xlink:href="#a"/></mask><use fill="#F2F3F4" fill-rule="nonzero" xlink:href="#a"/><path d="M155.5 123H61v57h-1v-57H0v-1h60V32H0v-1h60V0h1v31h94.5V0h1v31H236v1h-79.5v90H236v1h-79.5v57h-1v-57zm0-1V32H61v90h94.5z" fill="#E6E9E9" fill-rule="nonzero" mask="url(#b)"/><path fill="url(#c)" mask="url(#b)" d="M156 96l-6.5 6.5-5 32-3-15-2-75-2-15-16-14-9 15-14 14h-11l-5 15-2-30-3 30h-4l-5 30-2-15-12-15-2-14-23 14-4 15-3-29-9 44H0V180h156z"/><path d="M149.006 102.423a.5.5 0 01.14-.277l6.5-6.5a.5.5 0 11.708.708l-6.385 6.384-4.975 31.84c-.086.55-.875.568-.984.02L141 119.513l-1.996-74.947-1.975-14.814-15.408-13.482-8.692 14.487-.075.097-14 14A.5.5 0 0198.5 45H87.86l-4.886 14.658c-.173.52-.936.422-.973-.125l-1.6-24.011-2.403 24.028a.5.5 0 01-.498.45h-3.576l-4.93 29.582c-.095.567-.914.553-.99-.016l-1.981-14.862L54.11 59.812a.5.5 0 01-.105-.241l-1.893-13.25-22.18 13.502-3.949 14.806c-.143.536-.923.475-.98-.078L22.338 48.79 13.99 89.6a.5.5 0 01-.49.4H0v-1h13.092l8.918-43.6c.115-.56.928-.52.987.049l2.72 26.295 3.3-12.373a.5.5 0 01.223-.298l23-14a.5.5 0 01.755.356l1.98 13.865L66.89 74.188a.5.5 0 01.106.246l1.559 11.695 4.452-26.711A.5.5 0 0173.5 59h3.548l2.954-29.55c.062-.61.956-.595.997.017l1.83 27.463 4.197-12.588A.5.5 0 0187.5 44h10.793l13.81-13.81 8.968-14.947a.5.5 0 01.758-.12l16 14a.5.5 0 01.167.31L140 44.488l1.99 74.915 2.45 12.246 4.566-29.225z" fill="#85ACB0" fill-rule="nonzero" mask="url(#b)"/><path d="M158.959 95.5H163v1h-4.041a3 3 0 110-1zm36.458 1H191v-1h4.417L205 84h31v24h-31l-9.583-11.5zM183 95.5h4v1h-4v-1zm-8 0h4v1h-4v-1zm-8 0h4v1h-4v-1z" fill="#FF444F" fill-rule="nonzero" mask="url(#b)"/></g></svg>
